dist/img/icons/telega.svg

<svg width="32" height="28" viewBox="0 0 32 28" fill="none" xmlns="http://www.w3.org/2000/svg">
<path d="M8.11656 15.8867L11.8403 25.2476L16.6891 20.372L24.9822 27L31 1L1 13.1061L8.11656 15.8867ZM5.77656 13.0797L20.0763 7.30902L8.70484 14.2244L5.77656 13.0797ZM22.6244 7.82144L13.1331 16.552L11.9917 20.8778L9.88047 15.5705L22.6244 7.82144ZM13.8438 20.7377L14.4189 18.5578L15.3063 19.267L13.8438 20.7377ZM23.9017 23.883L15.2659 16.9809L28.2681 5.02058L23.9017 23.883Z" fill="#0B0B0B" stroke="#F5F5F5" stroke-width="0.0292969"/>
</svg>

<svg width="32" height="28" viewBox="0 0 32 28" fill="none" xmlns="http://www.w3.org/2000/svg"><path d="M8.117 15.887l3.723 9.36 4.85-4.875L24.981 27 31 1 1 13.106l7.117 2.78zm-2.34-2.807l14.3-5.771-11.372 6.915-2.928-1.144zm16.847-5.26l-9.49 8.731-1.142 4.326L9.88 15.57l12.744-7.749zm-8.78 12.917l.575-2.18.887.709-1.462 1.47zm10.058 3.145l-8.636-6.902L28.268 5.02l-4.366 18.862z" fill="#0B0B0B" stroke="#F5F5F5" stroke-width=".029"/></svg>
